wp-content/plugins/google-analytics-for-wordpress/lite/assets/vue/img/yir-icon-global.svg

<svg width="32" height="32" viewBox="0 0 32 32" fill="none" xmlns="http://www.w3.org/2000/svg">
    <path fill-rule="evenodd" clip-rule="evenodd" d="M15.9998 2.6665C8.63984 2.6665 2.6665 8.63984 2.6665 15.9998C2.6665 23.3598 8.63984 29.3332 15.9998 29.3332C23.3598 29.3332 29.3332 23.3598 29.3332 15.9998C29.3332 8.63984 23.3598 2.6665 15.9998 2.6665ZM5.33311 15.9998C5.33311 15.1865 5.43977 14.3865 5.61311 13.6265L11.9864 19.9998V21.3331C11.9864 22.7998 13.1864 23.9998 14.6531 23.9998V26.5731C9.41311 25.9065 5.33311 21.4265 5.33311 15.9998ZM21.3198 21.3331C22.5198 21.3331 23.5064 22.1198 23.8531 23.1998C25.5864 21.3064 26.6664 18.7731 26.6664 15.9998C26.6664 11.5331 23.8931 7.69312 19.9864 6.11978V6.66645C19.9864 8.13312 18.7864 9.33312 17.3198 9.33312H14.6531V11.9998C14.6531 12.7331 14.0531 13.3331 13.3198 13.3331H10.6531V15.9998H18.6531C19.3864 15.9998 19.9864 16.5998 19.9864 17.3331V21.3331H21.3198Z" fill="#6F4BBB"/>
</svg>

<svg width="32" height="32" fill="none" xmlns="http://www.w3.org/2000/svg"><path fill-rule="evenodd" clip-rule="evenodd" d="M16 2.667C8.64 2.667 2.666 8.64 2.666 16S8.64 29.333 16 29.333c7.36 0 13.333-5.973 13.333-13.333S23.36 2.666 16 2.666zM5.333 16c0-.813.107-1.614.28-2.373L11.986 20v1.333c0 1.467 1.2 2.667 2.667 2.667v2.573c-5.24-.666-9.32-5.146-9.32-10.573zm15.987 5.333c1.2 0 2.186.787 2.533 1.867a10.655 10.655 0 002.813-7.2c0-4.467-2.773-8.307-6.68-9.88v.546c0 1.467-1.2 2.667-2.666 2.667h-2.667V12c0 .733-.6 1.333-1.333 1.333h-2.667V16h8c.733 0 1.333.6 1.333 1.333v4h1.334z" fill="#6F4BBB"/></svg>
